X: 1
T: Largo's Fairy Dance
C: Nathaniel Gow
Z: John Chambers <jc@trillian.mit.edu>
L: 1/8
M: C|
Q: 1/2=120
K: D
de |:"D"f2fd f2fd | f2fd "A7"cAeA | "D"f2fd "G"gfed | "A7"cABc "D"defg|
     "D"f2fd f2fd | f2fd "A7"cAeA | "D"f2fd "G"gfed | "A7"cABc "D"defg :|
|: "D"a2af "G"b2ba | "Em"g2ge "A7"a2ag | "D"f2fd "G"gfed | "A7"cABc "D"defg|
   "D"a2af "G"b2ba | "Em"g2ge "A7"a2ag | "D"f2fd "G"gfed | "A7"cABc "D"d4 |]
